X: 19
T:Tam Lin (Howling Wind) var 3
M:4/4
L:1/8
S:Paddy O'Brien Tune Collection
R:Reel
N:Paddy O'Brien played this in Dm, but we play it in Em around
N:here.....The original name is Tam Lin, he renamed it with "The
N:Howling N:Wind" because he thought it needed a better name.
N:from The Scottish Music List, Vol2 No 87
Z:Michael Robinson
K:EMin
B,E (3EFE DEFD|C2EC GCEC|D2FD ADFD|CDEG FEDC|B,E (3EFE DEFD
|C2EC GCEC|D2  FD ADFA|1GFED B,EED:|2GFED B,EEB
|:eBBA GEGB|eBBA GEGB|dA (3AAA FAAB|dAAB defd
|eBBA GEGB|eBBA GEDE|CB,CD EDEF|1GBAF GEGB:|2GBAF GEE2||
